X: 36
T: The Sloe
R: polka
M: 2/2
K: D
L: 1/4
A    | "D" dA de  | "D" f>e dc  | "G" BA B/c/d/B/ | "D" AF E |
A    | "D" dA de  | "Bm" f>e dc | "G" BA "A"Bc       | "D" d2 d  :|
|: A | "D" B//c//B/A FA | B//c//B/A Fd/d/ | "G" dc/c/ "A" cB/B/ | "D" BA A |
d/d/ | "D" dc "A" ce/e/ | "D" ed df/f/    | "G" fe "A" Bc       | "D" d2 d :|


